X: 21729
T: King George IV
R: strathspey
M: 4/4
K: Adorian
A|"Am"E<A,A,>B, C>B,A,>A|"Am"E<A,A,>C "G"B,>A,G,>A|"Am"E<A,A,>B, "C"C>DE<C|"G"B,<DG>E D/C/B,/A,/ G,:|
d|"A"^c<eA>e c>e "D"d/c/B/A/|"A"^c<eA>e "D"d/c/B/A/ "G"G>d|"A"^c<eA>d c>eA>f|"G"g>g "A"a/g/f/e/ "D"d/^c/B/A/ "G"G>d|
"A"^c<eA>e c>e "D"d/c/B/A/|"A"^c<eA>e "D"d/c/B/A/ "G"G>B|"Am"c<e"G"B>d "Am"A<B"Em"E>F|"G"G>AG>E D/C/B,/A,/ G,||

